X:104
T:Taitou
R:Polka piqu\'ee
O:France
M:4/4
K:G
d2e2d4|cdcB ABcA|d2e2d4|cdcBA4::\
B2G2F2G2|ABAGF2D2|c2AcB2GB|1A2GAB2G2:|2A2F2G4||
